!!!!SEGMENT: Ano2010-Joseph_sancte.krn
!!!id: Ano2010
!!!jrpid:
!!!AGN: Motet
!!!voices: 4
!!!COM: Anonymous
!!!OTL: Joseph sancte
**kern	**kern	**kern	**kern
*part4	*part3	*part2	*part1
*staff4	*staff3	*staff2	*staff1
*I"Bassus	*I"Tenor	*I"Altus	*I"Superius
*I'B	*I'T	*I'A	*I'S
*clefF4	*clefGv2	*clefGv2	*clefG2
*k[]	*k[]	*k[]	*k[]
*C:	*C:	*C:	*C:
*M2/1	*M2/1	*M2/1	*M2/1
*met(C|)	*met(C|)	*met(C|)	*met(C|)
!!section: Prima pars: Joseph sancte
!!!OMD: Prima pars: Joseph sancte
0r	1G	0r	1r
.	[1c	.	1g
=1	=1	=1	=1
1r	1c]	1e	0cc
1C	[1e	[1g	.
=2	=2	=2	=2
0G	2e]	0g]	1.b
.	2d	.	.
.	1d	.	.
.	.	.	2g
=3	=3	=3	=3
1r	1c	1e	1g
1G	[1g	1d	1r
=4	=4	=4	=4
0c	2g]	0r	1g
.	2f	.	.
.	2e	.	[1cc
.	2d	.	.
=5	=5	=5	=5
1A	1c	1e	1cc]
1G	2d	[1g	[1b
.	[2G	.	.
=6	=6	=6	=6
2r	2G]	1g]	2b]
1C	2G	.	2g
.	[1c	1e	[1g
2C	.	.	.
=7	=7	=7	=7
1.G	2c]	1d	1g]
.	4B	.	.
.	4A	.	.
.	2B	1r	1r
4F	2c	.	.
4E	.	.	.
=8	=8	=8	=8
2F	2A	0r	0r
2G	2B	.	.
2E	[1c	.	.
2F	.	.	.
=9	=9	=9	=9
1.G	2c]	0r	0r
.	4B	.	.
.	4A	.	.
.	2.B	.	.
2G	.	.	.
.	4B	.	.
=10	=10	=10	=10
2E	2c	0r	0r
2F	2d	.	.
2.G	2.B	.	.
4A	4c	.	.
=11	=11	=11	=11
4B	4d	0r	1r
4G	4B	.	.
1c	1e	.	.
.	.	.	2r
4B	4d	.	[2g
4A	4c	.	.
=12	=12	=12	=12
2B	2d	2r	2g]
2c	2.e	1c	2g
1A	.	.	[1cc
.	4d	.	.
.	4e	2c	.
.	4c	.	.
=13	=13	=13	=13
1G	1d	1.g	2cc]
.	.	.	4b
.	.	.	4a
1r	1r	.	2b
.	.	4f	2cc
.	.	4e	.
=14	=14	=14	=14
0r	0r	2f	2a
.	.	2g	2b
.	.	2e	[1cc
.	.	2f	.
=15	=15	=15	=15
0r	0r	1.g	2cc]
.	.	.	4b
.	.	.	4a
.	.	.	2.b
.	.	2g	.
.	.	.	4b
=16	=16	=16	=16
1r	0r	2e	2cc
.	.	2f	2dd
1G	.	1g	4b
.	.	.	4cc
.	.	.	4dd
.	.	.	4b
=17	=17	=17	=17
1A	0r	2f	2.cc
.	.	1e	.
.	.	.	4b
[1c	.	.	4a
.	.	.	4g
.	.	[2a	[2cc
=18	=18	=18	=18
2c]	1r	4a]	2cc]
.	.	4g	.
2B	.	2.g	2dd
1A	1c	.	2.ee
.	.	4e	.
.	.	2f	.
.	.	.	8ddL
.	.	.	8ccJ
=19	=19	=19	=19
1G	1d	1g	1b
1r	[1f	1r	2a
.	.	.	[2dd
=20	=20	=20	=20
0r	2f]	1r	4dd]
.	.	.	4cc
.	2e	.	1cc
.	1d	1G	.
.	.	.	2b
=21	=21	=21	=21
0r	1c	1A	2.cc
.	.	.	4b
.	1r	[1c	4a
.	.	.	4g
.	.	.	[2a
=22	=22	=22	=22
2r	1r	2c]	4a]
.	.	.	4g
2G	.	2B	1g
2A	2r	1A	.
[2c	2c	.	2f#i
=23	=23	=23	=23
2c]	2d	1G	2g
2B	1e	.	2g
1A	.	1r	2a
.	2c	.	[2cc
=24	=24	=24	=24
1G	2d	2r	2cc]
.	1e	2G	2b
1r	.	1c	1a
.	4d	.	.
.	4c	.	.
=25	=25	=25	=25
0r	2B	2d	[0g
.	2c	2.e	.
.	2G	.	.
.	.	4d	.
.	2c	2c	.
=26	=26	=26	=26
2r	2d	2B	1g]
2C	2e	2c	.
2D	2.f	1A	2r
[2F	.	.	2cc
.	4e	.	.
=27	=27	=27	=27
2F]	2d	1r	1dd
2E	1c	.	.
2D	.	2r	[1ff
2D	2B	2d	.
=28	=28	=28	=28
1C	1c	2e	2ff]
.	.	2.g	2ee
1r	2r	.	2dd
.	.	4f	.
.	2G	2d	2dd
=29	=29	=29	=29
1r	2A	2f	1cc
.	1c	2e	.
2r	.	4d	1r
.	.	4c	.
2G	2B	4d	.
.	.	4e	.
=30	=30	=30	=30
2A	2.c	2f	2r
1c	.	2e	2g
.	4d	.	.
.	2e	1c	2a
2F	2f	.	2cc
=31	=31	=31	=31
2G	2d	2g	2b
2A	2c	2f	2.cc
1G	1d	1g	.
.	.	.	4a
.	.	.	2b
=32	=32	=32	=32
*M3/1	*M3/1	*M3/1	*M3/1
*met(C|3)	*met(C|3)	*met(C|3)	*met(C|3)
0C	0.c	1g	0.cc
.	.	1e	.
1C	.	1e	.
=33	=33	=33	=33
1C	0.r	1.g	1r
1.c	.	.	1g
.	.	2f	.
.	.	[1e	1g
2B	.	.	.
=34	=34	=34	=34
0A	1c	1e]	1.cc
.	1c	1.c	.
.	.	.	2b
[1F	[1f	.	1a
.	.	2B	.
=35	=35	=35	=35
1F]	2f]	2c	1a
.	2e	2A	.
0G	1d	1.B	0g
.	1d	.	.
.	.	2G	.
=36	=36	=36	=36
0C	1.c	1G	1e
.	.	0g	0cc
.	2c	.	.
1C	1c	.	.
=37	=37	=37	=37
1G	1d	1g	1b
1.c	0e	0a	1cc
.	.	.	1a
2B	.	.	.
=38	=38	=38	=38
1G	1d	1g	1b
1A	1d	1g	1cc
1A	1c	1f#i	1cc
=39	=39	=39	=39
1G	0.d	1g	0.b
1r	.	1G	.
1G	.	1G	.
=40	=40	=40	=40
1G	0.r	1.g	1r
1.c	.	.	1g
.	.	2f	.
.	.	[1e	1g
2B	.	.	.
=41	=41	=41	=41
0A	1c	1e]	1.cc
.	1c	1.c	.
.	.	.	2b
[1F	1f	.	1a
.	.	2B	.
=42	=42	=42	=42
1F]	2f	2c	1a
.	2e	2A	.
0G	1d	1.B	0g
.	1d	.	.
.	.	2G	.
=43	=43	=43	=43
0C	1.c	1G	1e
.	.	0g	0cc
.	2c	.	.
1C	1c	.	.
=44	=44	=44	=44
1G	1d	1g	1b
1.c	0e	0a	1cc
.	.	.	1a
2B	.	.	.
=45	=45	=45	=45
1G	1d	1g	1b
1A	1c	1g	1cc
1A	1c	1f#i	1cc
=46	=46	=46	=46
*M2/1	*M2/1	*M2/1	*M2/1
*met(C|)	*met(C|)	*met(C|)	*met(C|)
1.G	1d	1.g	2.b
.	.	.	8aL
.	.	.	8gJ
.	2G	.	2b
2F	2A	2d	[2a
=47	=47	=47	=47
2E	2B	1e	4a]
.	.	.	4g
2C	2c	.	1g
1D	1A	1d	.
.	.	.	2f#i
=48	=48	=48	=48
1E	1.G	1B	[0gl
1C	.	1c	.
.	2A	.	.
=49	=49	=49	=49
00Gl	00Bl	00dl	00g]
==	==	==	==
*-	*-	*-	*-
!!!system-decoration: [*]
!!!RDF**kern: i = editorial accidental
!!!RDF**kern: l = terminal long
!!!ENC: Benjamin Ory
!!!END: 2024/4/28
!!!EED: Benjamin Ory
!!!EEV: 2024/04/28
!!!YEC: Copyright 2024 Benjamin Ory, All Rights Reserved
!!!ONB: Translated from MusicXML on 2024/04/28
